!!!ONB: MCCC : IJH0463_03 : Extracted Monophonic Melody
!!!COM: Haydn, Joseph
!!!OPR: String Quartet in G major
!!!OMV: 3
!!!SCT: Hob.III:58 ; Op.54 No.1
!!!ODT: 1788///
**kern
*thru
*k[f#]
*G:
*clefG
*M3/4
8.d
16g
=1
2.b
=2
8a
8dd
2dd
=3
4dd
8cc
8b
8a
8g
=4
4f#
4a
4a
=5
4a
4r
8.d
16g
=6
2.b
=7
8a
8dd#
4.dd#
8ee
=8
8ee
8dd
8cc
8b
8a
8g
=9
4a
4cc
4f#
=10
4g
4r
8.B
16e
=11
4g
4b
4ee
=12
4gg
4ee
16aa#
8.bb
=13
4b
4b
4b
=14
2b
8.bb
16ff#
=15
4gg
4ee
8.aa
16ee
=16
4ff#
4dd
8.ff#
16aa
=17
4ddd
4ddd
4ddd
=18
2.ddd
=19
2.e
=20
4d
4r
8.c#
16d
=21
2f#
8.c#
16d
=22
2g
8.c#
16d
=23
4a
8g
8f#
8e
8d
=24
4.c
8B
8.d
16g
=25
2.b
=26
8a
8dd
2dd
=27
4dd
8cc
8b
8a
8g
=28
4f#
4a
4a
=29
4a
4r
8.d
16g
=30
2.b
=31
8a
8dd#
4.dd#
8ee
=32
8ee
8dd
8cc
8b
8a
8g
=33
4a
4cc
4f#
=34
4g
2r
=35
2r
8.g
16cc
=36
2.cc
=37
8b
8ff
2ff
=38
8ff
8ee
8dd
8cc
8b
8a
=39
8a
8ee-
2ee-
=40
8a
8ee
2ee
=41
8.a
16ff#
8.b
16gg
8.cc
16aa
=42
8.dd
16ddd
8.bb
16gg
8.dd
16b
=43
4a
4cc
4f#
=44
4g
2r
=45
2.r
=46
2.r
=47
2.r
=48
2.r
=49
2.r
=50
2.r
=51
2.r
=52
2.r
=53
4r
8g#
8b
8dd
8ff
=54
8ee
8cc
8b
8a
4r
=55
4r
8f#
8a
8cc
8ee
=56
8dd
8b
8a
8g
8ff
16ee
16ff
=57
4ee
8gg
16ff#
16gg
4ff#
=58
8aa
16gg
16aa
4gg
4ccc
=59
4bb
4aa
4gg
=60
2ff#
4r
=61
4r
4aa
4aa
=62
4bb
4gg
8ff#
8gg
=63
4aa
4aa
8bb
16aa
16bb
=64
4ccc
2r
=65
4r
4aa
4aa
=66
4bb
4gg
8gg
16ff#
16gg
=67
4aa
4ccc
4ff#
=68
4gg
2r
==
*-
